Sources/FrostedUI/Resources/Icons.xcassets/lilstNumber12.imageset/lilst-number-12.svg

<svg width="12" height="12" viewBox="0 0 12 12" fill="none" xmlns="http://www.w3.org/2000/svg" data-fui-icon="true">
  <path
    d="M9.125 1.125C10.0915 1.125 10.875 1.90851 10.875 2.875V9.125C10.875 10.0915 10.0915 10.875 9.125 10.875H2.875C1.90851 10.875 1.125 10.0915 1.125 9.125V2.875C1.125 1.9085 1.9085 1.125 2.875 1.125H9.125ZM2.875 2.625C2.73693 2.625 2.625 2.73693 2.625 2.875V9.125C2.625 9.26308 2.73692 9.375 2.875 9.375H9.125C9.26309 9.375 9.375 9.26309 9.375 9.125V2.875C9.375 2.73692 9.26308 2.625 9.125 2.625H2.875ZM4.17188 6.83398C4.58609 6.83398 4.92188 7.16977 4.92188 7.58398C4.92153 7.99791 4.58588 8.33398 4.17188 8.33398H4.07812C3.66412 8.33398 3.32847 7.99791 3.32812 7.58398C3.32812 7.16977 3.66391 6.83398 4.07812 6.83398H4.17188ZM8.21875 6.83398C8.63296 6.83398 8.96875 7.16977 8.96875 7.58398C8.96841 7.99791 8.63275 8.33398 8.21875 8.33398H6.1875C5.7735 8.33398 5.43784 7.99791 5.4375 7.58398C5.4375 7.16977 5.77329 6.83398 6.1875 6.83398H8.21875ZM4.17188 3.66699C4.58609 3.66699 4.92188 4.00278 4.92188 4.41699C4.92171 4.83107 4.58599 5.16699 4.17188 5.16699H4.07812C3.66401 5.16699 3.32829 4.83107 3.32812 4.41699C3.32812 4.00278 3.66391 3.66699 4.07812 3.66699H4.17188ZM8.21875 3.66699C8.63296 3.66699 8.96875 4.00278 8.96875 4.41699C8.96859 4.83107 8.63286 5.16699 8.21875 5.16699H6.1875C5.77339 5.16699 5.43766 4.83107 5.4375 4.41699C5.4375 4.00278 5.77329 3.66699 6.1875 3.66699H8.21875Z"
    fill="currentColor"
  />
</svg>

<svg xmlns="http://www.w3.org/2000/svg" width="12" height="12" fill="none" data-fui-icon="true" viewBox="0 0 12 12"><path fill="currentColor" d="M9.125 1.125c.966 0 1.75.784 1.75 1.75v6.25a1.75 1.75 0 0 1-1.75 1.75h-6.25a1.75 1.75 0 0 1-1.75-1.75v-6.25c0-.966.784-1.75 1.75-1.75zm-6.25 1.5a.25.25 0 0 0-.25.25v6.25c0 .138.112.25.25.25h6.25a.25.25 0 0 0 .25-.25v-6.25a.25.25 0 0 0-.25-.25zm1.297 4.209a.75.75 0 0 1 0 1.5h-.094a.75.75 0 0 1 0-1.5zm4.047 0a.75.75 0 0 1 0 1.5H6.188a.75.75 0 0 1 0-1.5zM4.172 3.667a.75.75 0 0 1 0 1.5h-.094a.75.75 0 0 1 0-1.5zm4.047 0a.75.75 0 0 1 0 1.5H6.188a.75.75 0 0 1 0-1.5z"/></svg>
